X:1010
T:Lucky Kitchens Reel
T:Portpatrick
S:MS, National Library of Scotland
N:http://archive.org/details/msbookofscottish00unse
Z:Nigel Gatherer
L:1/8
M:6/8
K:G
d | dBG GAB | c2B A2G | dBG GAG | A2Bc2e |
dBG GAB | c2B A2G | B/c/dB A/B/cA | G2G G2 :|
d | dBd ece | dBd ece | efg dBG | A2B c2e |
def gfe | dcB A2G | B/c/dB A/B/cA | G2G G2 :|
<end>
<start>
